X:18549
T:Wearmouth Lasses
M:6/8
L:1/8
S:Armitt MS
N:Key signature is given as D major.  Note in modern handwriting
N:"Wearmouth Lasses Lately known as "Yarmouth Lasses" which is probably a
N:mishearing
K:G major
"SEE NOTE"d|gfg dBd|cAcB2G|DGB B2A|Acee2d|gfg dBd|cBcB2G|DGB B2d|dcAG2:|
|:DGBB2A|ce e2d|DGB B2A|Acee2d|gfg dBd|cAcB2G|DGB B2d|dcAG2:||


